Papirus/16x16/extra/clementine/kittens.svg

<?xml version="1.0" encoding="UTF-8" standalone="no"?>
<!--Generator: Adobe Illustrator 18.1.1, SVG Export Plug-In . SVG Version: 6.00 Build 0)-->
<svg xmlns:dc="http://purl.org/dc/elements/1.1/" xmlns:cc="http://creativecommons.org/ns#" xmlns:rdf="http://www.w3.org/1999/02/22-rdf-syntax-ns#" xmlns:svg="http://www.w3.org/2000/svg" xmlns="http://www.w3.org/2000/svg" xmlns:sodipodi="http://sodipodi.sourceforge.net/DTD/sodipodi-0.dtd" xmlns:inkscape="http://www.inkscape.org/namespaces/inkscape" version="1.1" id="Capa_1" x="0px" y="0px" viewBox="0 0 16 16" xml:space="preserve" inkscape:version="0.91 r13725" sodipodi:docname="kittens.svg" width="16" height="16">
    <metadata id="metadata41">
        <rdf:RDF>
            <cc:Work rdf:about="">
                <dc:format>
                    image/svg+xml
                </dc:format>
                <dc:type rdf:resource="http://purl.org/dc/dcmitype/StillImage"/>
                <dc:title/>
            </cc:Work>
        </rdf:RDF>
    </metadata>
    <sodipodi:namedview pagecolor="#ffffff" bordercolor="#666666" borderopacity="1" objecttolerance="10" gridtolerance="10" guidetolerance="10" inkscape:pageopacity="0" inkscape:pageshadow="2" inkscape:window-width="1600" inkscape:window-height="847" id="namedview37" showgrid="false" inkscape:zoom="22.84" inkscape:cx="13.737688" inkscape:cy="9.9223479" inkscape:window-x="0" inkscape:window-y="0" inkscape:window-maximized="1" inkscape:current-layer="Capa_1"/>
    <path style="fill:#000000;fill-opacity:1;opacity:0.5" d="M 5 1 C 3.8953575 1 3 2.3432322 3 4 C 3 5.656768 3.8953575 7 5 7 C 6.1046424 7 7 5.656768 7 4 C 7 2.3432322 6.1046424 1 5 1 z M 10 1 C 8.8953576 1 8 2.3432322 8 4 C 8 5.656768 8.8953576 7 10 7 C 11.104643 7 12 5.656768 12 4 C 12 2.3432322 11.104643 1 10 1 z M 1.8867188 5.9863281 C 1.7957818 5.9977471 1.7090698 6.0213549 1.625 6.0605469 C 0.95244138 6.3740829 0.79785615 7.4881302 1.28125 8.546875 C 1.7648905 9.6056197 2.7024413 10.207818 3.375 9.8945312 C 4.0475587 9.5807461 4.2023905 8.468901 3.71875 7.4101562 C 3.2955646 6.4837546 2.5232773 5.9063952 1.8867188 5.9863281 z M 14.113281 5.9863281 C 13.476723 5.9063952 12.704436 6.4837546 12.28125 7.4101562 C 11.79761 8.468901 11.952441 9.5807461 12.625 9.8945312 C 13.297559 10.207818 14.23511 9.6056197 14.71875 8.546875 C 15.202144 7.4881302 15.047559 6.3740829 14.375 6.0605469 C 14.29093 6.0213549 14.204218 5.9977471 14.113281 5.9863281 z M 7.8378906 8 C 7.8378906 8 6.7823896 7.9969751 6.0585938 8.6445312 C 5.056896 9.5418758 3.9003906 11.451172 3.9003906 11.451172 C 3.2888873 12.408892 3 12.915252 3 13.445312 C 3 14.492708 3.7837698 15 4.8378906 15 C 5.3019539 15 5.5896065 15.004833 6.3476562 14.613281 C 6.3476563 14.613281 6.8398416 14.161451 8 14.207031 C 9.1494356 14.161158 9.640625 14.607422 9.640625 14.607422 C 10.398674 14.999271 10.699404 15 11.164062 15 C 12.218182 15 13 14.492116 13 13.445312 C 13 12.915252 12.71141 12.406347 12.099609 11.449219 C 12.099609 11.449515 10.914079 9.5744312 9.9433594 8.6445312 C 9.2648377 7.9963869 8.1621094 8 8.1621094 8 L 7.8378906 8 z " id="path4178"/>
</svg>

<?xml version="1.0" encoding="UTF-8" standalone="no"?>
<!--Generator: Adobe Illustrator 18.1.1, SVG Export Plug-In . SVG Version: 6.00 Build 0)-->
<svg id="Capa_1" xmlns:rdf="http://www.w3.org/1999/02/22-rdf-syntax-ns#" xmlns="http://www.w3.org/2000/svg" xml:space="preserve" viewBox="0 0 16 16" height="16" width="16" version="1.1" y="0px" x="0px" xmlns:cc="http://creativecommons.org/ns#" xmlns:dc="http://purl.org/dc/elements/1.1/">
    <metadata id="metadata41">
        <rdf:RDF>
            <cc:Work rdf:about="">
                <dc:format>
                    image/svg+xml
                </dc:format>
                <dc:type rdf:resource="http://purl.org/dc/dcmitype/StillImage"/>
                <dc:title/>
            </cc:Work>
        </rdf:RDF>
    </metadata>
    <path id="path4178" opacity=".5" d="m5 1c-1.1046 0-2 1.3432-2 3s0.8954 3 2 3 2-1.3432 2-3-0.8954-3-2-3zm5 0c-1.1046 0-2 1.3432-2 3s0.8954 3 2 3c1.105 0 2-1.3432 2-3s-0.895-3-2-3zm-8.1133 4.9863c-0.0909 0.0114-0.1776 0.0351-0.2617 0.0742-0.67256 0.3136-0.82714 1.4276-0.3438 2.4864 0.4837 1.0587 1.4212 1.6611 2.0938 1.3476 0.6726-0.3138 0.8274-1.4256 0.3438-2.4843-0.4232-0.9264-1.1955-1.5038-1.8321-1.4239zm12.226 0c-0.636-0.0799-1.409 0.4975-1.832 1.4239-0.483 1.0587-0.329 2.1705 0.344 2.4843 0.673 0.3135 1.61-0.2889 2.094-1.3476 0.483-1.0588 0.329-2.1728-0.344-2.4864-0.084-0.0391-0.171-0.0628-0.262-0.0742zm-6.2751 2.0137s-1.0555-0.003-1.7793 0.6445c-1.0017 0.8974-2.1582 2.8065-2.1582 2.8065-0.6115 0.958-0.9004 1.464-0.9004 1.994 0 1.048 0.7838 1.555 1.8379 1.555 0.4641 0 0.7517 0.005 1.5098-0.387 0 0 0.4921-0.452 1.6523-0.406 1.1494-0.046 1.6406 0.4 1.6406 0.4 0.7584 0.392 1.0584 0.393 1.5234 0.393 1.054 0 1.836-0.508 1.836-1.555 0-0.53-0.289-1.039-0.9-1.996 0 0.001-1.186-1.8746-2.1566-2.8045-0.6786-0.6481-1.7813-0.6445-1.7813-0.6445h-0.3242z"/>
</svg>
